img/icons/boots.svg

<svg width="24" height="24" viewBox="0 0 24 24" fill="none" xmlns="http://www.w3.org/2000/svg">
<path d="M23.6583 15.6155C24.404 13.2805 23.7904 10.6301 23.1385 8.79354C23.1342 8.72248 23.1123 8.65361 23.0746 8.59327C22.853 7.99671 22.6484 7.50669 22.4737 7.15302C22.7953 7.02497 23.0075 6.71509 23.0106 6.36898V2.8195C23.0106 2.34881 22.6291 1.96729 22.1584 1.96729H11.6889C11.4536 1.96686 11.2625 2.15728 11.2621 2.39265C11.2621 2.40144 11.2624 2.41023 11.2628 2.41896C11.4077 4.97561 11.2202 6.70987 10.6791 7.9328C10.6683 7.94494 10.6583 7.95778 10.6492 7.97115C10.6476 7.9924 10.6476 8.01381 10.6492 8.03506C10.4427 8.48024 10.1633 8.88776 9.82259 9.24095L9.78424 9.26652C9.78424 9.26652 9.78424 9.26652 9.78424 9.29634C9.28468 9.77279 8.70853 10.1617 8.07981 10.4468C6.98439 10.9329 5.86021 11.3512 4.71355 11.6996L4.49624 11.772C0.512129 13.093 -0.00772321 15.4877 0.000798953 16.6893C-0.000266318 16.7064 -0.000266318 16.7234 0.000798953 16.7404V19.7829C0.00143811 19.9309 0.07883 20.068 0.205331 20.1451C1.18176 20.7392 2.23574 21.1951 3.33722 21.5001C3.56375 21.5638 3.79907 21.4318 3.86278 21.2052C3.87476 21.1625 3.88003 21.1182 3.87838 21.074V20.976H4.50476V21.4021C4.50204 21.6132 4.65433 21.7944 4.86269 21.8282C5.23341 21.8878 5.60412 21.9347 5.96631 21.9645C6.08498 21.9745 6.20243 21.9343 6.29015 21.8537C6.37783 21.7724 6.42731 21.658 6.42651 21.5384V21.0015H7.05289V21.6066C7.05289 21.8419 7.24368 22.0327 7.479 22.0327C7.83693 22.0327 8.19486 22.0327 8.57835 21.9816C8.8003 21.9638 8.97107 21.7781 8.97037 21.5555V21.0015H9.59675V21.3765C9.59372 21.6118 9.782 21.8051 10.0173 21.8081C10.042 21.8084 10.0666 21.8066 10.091 21.8026C10.8732 21.6828 11.6442 21.499 12.3963 21.2529L12.4645 21.2231C15.4472 19.5187 17.3391 20.9206 17.4158 20.9802C17.4902 21.038 17.5816 21.0694 17.6758 21.0697H18.2041C18.4395 21.0697 18.6302 20.8789 18.6302 20.6436V19.9235H19.2396V20.6351C19.2396 20.8704 19.4304 21.0612 19.6657 21.0612H21.0378C21.2731 21.0612 21.4639 20.8704 21.4639 20.6351V19.9235H22.0945V20.6351C22.0945 20.8704 22.2853 21.0612 22.5206 21.0612H23.5731C23.8084 21.0612 23.9992 20.8704 23.9992 20.6351V16.0416C24.0034 15.8359 23.8599 15.6566 23.6583 15.6155ZM13.5468 2.82802H13.8962H22.1371V6.3562H13.5468V2.82802ZM8.1906 11.3246L8.19486 11.3502C8.54416 11.6338 8.86651 11.949 9.15786 12.2919C9.08058 12.4204 9.04073 12.568 9.04281 12.718C9.03988 13.1675 9.40191 13.5342 9.85135 13.5371C10.3008 13.5401 10.6676 13.178 10.6705 12.7286C10.6733 12.3051 10.3509 11.9504 9.92912 11.9126C9.6596 11.5452 9.35254 11.2067 9.01298 10.9028C9.39377 10.686 9.75202 10.432 10.0825 10.1443C10.4958 10.532 10.8803 10.9493 11.233 11.3928C11.0848 11.8171 11.3086 12.2813 11.7329 12.4296C12.1572 12.5778 12.6214 12.354 12.7697 11.9297C12.9179 11.5053 12.6941 11.0412 12.2698 10.8929C12.1817 10.8621 12.0891 10.8467 11.9957 10.8474H11.8935C11.5197 10.3768 11.1125 9.93396 10.6748 9.52218C10.8779 9.27211 11.0576 9.00398 11.2117 8.7211C11.8714 9.06449 12.5089 9.44873 13.1207 9.87159C13.1165 10.3258 13.4813 10.6973 13.9354 10.7015C14.3896 10.7057 14.7612 10.3409 14.7654 9.88677C14.7696 9.43259 14.4048 9.06102 13.9506 9.05682C13.8209 9.05559 13.6927 9.0851 13.5766 9.14294C12.9327 8.70704 12.2624 8.31145 11.5696 7.95836C12.0341 6.72265 12.2344 5.08214 12.1406 2.84507H12.6988V6.37324C12.6988 6.84393 13.0803 7.22546 13.551 7.22546H21.5363C21.6471 7.4513 21.8346 7.84331 22.0391 8.35464H21.8644C19.2758 8.37334 17.1925 10.4869 17.2112 13.0755C17.2218 14.5465 17.9224 15.9272 19.1032 16.8044C15.656 17.712 10.4703 18.79 6.10693 18.5088C6.91227 15.2917 5.94927 13.3103 5.32289 12.441C6.2983 12.1211 7.25561 11.7484 8.1906 11.3246ZM4.46641 12.6839C4.92661 13.2251 6.12823 15.0445 5.24619 18.3895C3.71082 18.2688 2.2196 17.8182 0.874321 17.0686C0.859034 16.9712 0.849074 16.873 0.844493 16.7745V16.7447C0.810404 15.8371 1.15129 13.8727 4.46641 12.6839ZM22.9467 20.209V19.4974C22.9467 19.262 22.7559 19.0713 22.5206 19.0713H21.042C20.8067 19.0713 20.6159 19.262 20.6159 19.4974V20.209H20.0918V19.4974C20.0918 19.262 19.901 19.0713 19.6657 19.0713H18.1956C17.9603 19.0713 17.7695 19.262 17.7695 19.4974V20.1919C17.19 19.8297 15.0722 18.7772 12.0682 20.4561C11.5337 20.6325 10.9886 20.7748 10.4362 20.8822V20.5882C10.4362 20.3529 10.2454 20.1621 10.0101 20.1621H8.54C8.30469 20.1621 8.1139 20.3529 8.1139 20.5882V21.172H7.89658V20.5754C7.89658 20.3401 7.70579 20.1493 7.47047 20.1493H5.99188C5.75656 20.1493 5.56577 20.3401 5.56577 20.5754V21.0825L5.34845 21.0527V20.5754C5.34845 20.3401 5.15767 20.1493 4.92235 20.1493H3.44375C3.22702 20.1478 3.04364 20.3091 3.01764 20.5243C2.26136 20.2753 1.53308 19.9482 0.844493 19.5485V18.023C2.70232 19.0073 5.10557 19.3781 7.66222 19.3781C14.4544 19.3781 22.2266 16.7788 23.1427 16.4677L23.147 20.209H22.9467ZM22.7379 15.7135C22.3757 15.8328 21.4852 16.1396 20.2537 16.4677C18.3473 15.5451 17.5497 13.2516 18.4724 11.3451C19.1036 10.041 20.4158 9.20393 21.8644 9.18129C22.0324 9.17895 22.2003 9.18747 22.3672 9.20686L22.3715 9.21964C22.9979 11.0263 23.5603 13.6043 22.7379 15.7135Z" fill="#2D383F"/>
<path d="M15.1872 3.34363C14.5024 3.34363 13.9473 3.89879 13.9473 4.5836C13.9496 5.26745 14.5034 5.82123 15.1872 5.82358C15.872 5.82358 16.4272 5.26841 16.4272 4.5836C16.4272 3.89879 15.8721 3.34363 15.1872 3.34363ZM15.1872 4.97136C14.9731 4.97136 14.7995 4.79777 14.7995 4.5836C14.7995 4.36943 14.9731 4.19584 15.1872 4.19584C15.4014 4.19584 15.575 4.36943 15.575 4.5836C15.575 4.79777 15.4014 4.97136 15.1872 4.97136Z" fill="#2D383F"/>
</svg>

<svg width="24" height="24" fill="none" xmlns="http://www.w3.org/2000/svg"><path d="M23.658 15.616c.746-2.335.132-4.986-.52-6.822a.427.427 0 00-.063-.2 15.949 15.949 0 00-.601-1.441.852.852 0 00.537-.784v-3.55a.852.852 0 00-.853-.852h-10.47a.426.426 0 00-.425.452c.145 2.557-.043 4.29-.584 5.514a.376.376 0 00-.03.038.426.426 0 000 .064 4.41 4.41 0 01-.826 1.206l-.039.026v.03c-.5.476-1.075.865-1.704 1.15-1.096.486-2.22.904-3.366 1.253l-.218.072C.512 13.093-.008 15.488.001 16.689a.409.409 0 000 .051v3.043c0 .148.078.285.204.362.977.594 2.03 1.05 3.132 1.355a.426.426 0 00.541-.426v-.098h.627v.426a.426.426 0 00.358.426c.37.06.741.107 1.103.137a.426.426 0 00.46-.427v-.537h.627v.606c0 .235.19.426.426.426.358 0 .716 0 1.1-.051a.426.426 0 00.391-.427v-.553h.627v.375a.426.426 0 00.494.426c.782-.12 1.553-.304 2.305-.55l.068-.03c2.983-1.704 4.875-.302 4.952-.243.074.058.166.09.26.09h.528a.426.426 0 00.426-.426v-.72h.61v.711c0 .235.19.426.426.426h1.372c.235 0 .426-.19.426-.426v-.712h.63v.712c0 .235.191.426.427.426h1.052c.235 0 .426-.19.426-.426v-4.593a.426.426 0 00-.34-.427zM13.547 2.828h8.59v3.528h-8.59V2.828zM8.19 11.325l.004.025c.35.284.672.599.963.942a.805.805 0 00-.115.426.814.814 0 10.886-.805 6.572 6.572 0 00-.916-1.01c.38-.217.739-.471 1.07-.759.413.388.797.805 1.15 1.249a.814.814 0 10.763-.546h-.103c-.373-.47-.78-.913-1.218-1.325a5.3 5.3 0 00.537-.8c.66.342 1.297.727 1.909 1.15a.822.822 0 10.456-.73 18.843 18.843 0 00-2.007-1.184c.464-1.235.664-2.876.57-5.113h.559v3.528c0 .47.381.852.852.852h7.985c.111.226.299.618.503 1.13h-.175a4.687 4.687 0 00-2.76 8.45c-3.448.907-8.634 1.985-12.997 1.704.805-3.217-.158-5.199-.784-6.068.975-.32 1.933-.693 2.868-1.116zm-3.725 1.359c.46.541 1.662 2.36.78 5.706a10.706 10.706 0 01-4.372-1.321 2.709 2.709 0 01-.03-.294v-.03c-.034-.908.307-2.872 3.622-4.061zm18.48 7.525v-.712a.426.426 0 00-.425-.426h-1.479a.426.426 0 00-.426.426v.712h-.524v-.712a.426.426 0 00-.426-.426h-1.47a.426.426 0 00-.427.426v.695c-.579-.362-2.697-1.415-5.7.264-.535.177-1.08.319-1.633.426v-.294a.426.426 0 00-.426-.426H8.54a.426.426 0 00-.426.426v.584h-.217v-.597a.426.426 0 00-.427-.426H5.992a.426.426 0 00-.426.426v.508l-.218-.03v-.478a.426.426 0 00-.426-.426H3.444a.426.426 0 00-.426.375 11.48 11.48 0 01-2.174-.976v-1.525c1.858.984 4.262 1.355 6.818 1.355 6.792 0 14.565-2.6 15.48-2.91l.005 3.741h-.2zm-.208-4.495c-.362.119-1.253.426-2.484.754a3.835 3.835 0 012.113-7.261l.005.013c.626 1.806 1.188 4.384.366 6.493z" fill="#2D383F"/><path d="M15.187 3.344a1.24 1.24 0 100 2.48 1.24 1.24 0 000-2.48zm0 1.627a.388.388 0 110-.775.388.388 0 010 .775z" fill="#2D383F"/></svg>
